X:13
T:Midnight Masquerade
C:Corwin Zekley
L:1/8
M:3/4
K:Dmin
"Dm" z2 DE Fd |"Am" c2{dc} =B2 Ac |"Dm" z2 DE Fd |"Am" c2"G" =B2 AB |$"F" c3 c =BA |"C" G3 G FE |1 %6
"Dm" FA df e=B |"A" d2 ^c4 :|2"Bb" FA df ^gb ||"A" a3 g fe |$"C" d2 c3 A |"Am" fe cG Ac | %12
"Dm" dc AF D_E |"G7" E3 E FG |$"Bb7" _A3 A GF |"A7" G2 _AG FD |"Dm" F3 D FG |"G7" A2 G4 |$ %18
"C" d2 c3 A |"Am" fe cG Ac |"Dm" dc AF D_E |"G7" E3 E FG |$"Fm7" _A4 GA |"Bb7" B2 F3 B | %24
"Em" =B3 A Bd |"A" ^c6 |] %26

